X:1
T:Stiffkey
C:Duncan Churchill-Moss
M:6/8
L:1/8
R:Jig
K:C
G|"C"c2d edc|"C"e2g "G"d3|"F"efe "Dm"d2d|"F"c2A "G"G2G|
"C"c2d edc|"C"e2g "G"d3|"F"efe "G"d2d|1"C"c3-c2G:|2"C"c6||
"G"d2e fed|"C"e2g "G"d3|"F"efe "Dm"d2d|"F"c2A "G"d3|
"G"d2e fed|"C"e2g "G"d3|1"F"efe c2A|"G"d3-d3:|2"F"efe "G"d2d|"C"c3-c2|]